X: 16122
T: Green Groves Of Erin, The
R: reel
M: 4/4
K: Amixolydian
|:A2 cA eAcA|G2 Bd gdBG|A2 cA eAcA|BGEF GBdB|
A2 cA eAcA|G2 Bd gdBG|ABcdeAAc|BEED EA A2:|
|:eaag eaag|eggf eggf|eaag eaag|edef gdBd|
eaag bgag|eggf afge|dega b2 ag|egfa gedB:|

